flaticon/constructions/socket-12.svg

<svg xmlns="http://www.w3.org/2000/svg" width="32" height="32" viewBox="0 0 24 24">
    <path d="M 21.601562 1.800781 L 2.398438 1.800781 C 1.078125 1.800781 0 2.878906 0 4.199219 L 0 17 C 0 18.320312 1.078125 19.398438 2.398438 19.398438 L 16.398438 19.398438 C 16.398438 19.800781 16.480469 20.160156 16.640625 20.480469 C 17.121094 21.71875 18.601562 22.320312 19.960938 21.800781 C 20.761719 21.519531 22 21.558594 22.519531 22.078125 C 22.601562 22.160156 22.679688 22.199219 22.800781 22.199219 C 22.921875 22.199219 23 22.160156 23.078125 22.078125 C 23.238281 21.921875 23.238281 21.679688 23.078125 21.519531 C 22.320312 20.761719 20.71875 20.679688 19.679688 21.078125 C 18.71875 21.441406 17.71875 21.039062 17.359375 20.199219 C 17.238281 19.960938 17.199219 19.679688 17.199219 19.398438 L 21.601562 19.398438 C 22.921875 19.398438 24 18.320312 24 17 L 24 4.199219 C 24 2.878906 22.921875 1.800781 21.601562 1.800781 Z M 23.199219 17 C 23.199219 17.878906 22.480469 18.601562 21.601562 18.601562 L 17.199219 18.601562 L 17.199219 17.800781 L 21 17.800781 C 21.761719 17.800781 22.398438 17.160156 22.398438 16.398438 L 22.398438 4.800781 C 22.398438 4.039062 21.761719 3.398438 21 3.398438 L 3 3.398438 C 2.238281 3.398438 1.601562 4.039062 1.601562 4.800781 L 1.601562 16.398438 C 1.601562 17.160156 2.238281 17.800781 3 17.800781 L 16.398438 17.800781 L 16.398438 18.601562 L 2.398438 18.601562 C 1.519531 18.601562 0.800781 17.878906 0.800781 17 L 0.800781 4.199219 C 0.800781 3.320312 1.519531 2.601562 2.398438 2.601562 L 21.601562 2.601562 C 22.480469 2.601562 23.199219 3.320312 23.199219 4.199219 Z M 13.601562 10.601562 C 13.601562 9.664062 14.003906 8.820312 14.648438 8.234375 C 14.847656 9.804688 14.847656 11.398438 14.65625 12.96875 C 14.007812 12.382812 13.601562 11.535156 13.601562 10.601562 Z M 18.945312 12.96875 C 18.75 11.398438 18.753906 9.808594 18.949219 8.234375 C 19.59375 8.820312 20 9.664062 20 10.601562 C 20 11.535156 19.59375 12.382812 18.945312 12.96875 Z M 15.402344 7.722656 C 15.824219 7.515625 16.300781 7.398438 16.800781 7.398438 C 17.300781 7.398438 17.777344 7.515625 18.199219 7.722656 C 17.921875 9.640625 17.921875 11.558594 18.199219 13.476562 C 17.890625 13.625 17.554688 13.730469 17.199219 13.773438 L 17.199219 11.800781 C 17.199219 11.558594 17.039062 11.398438 16.800781 11.398438 C 16.558594 11.398438 16.398438 11.558594 16.398438 11.800781 L 16.398438 13.773438 C 16.046875 13.730469 15.710938 13.625 15.402344 13.476562 C 15.679688 11.558594 15.679688 9.640625 15.402344 7.722656 Z M 17.199219 14.578125 C 17.222656 14.578125 17.242188 14.574219 17.265625 14.570312 C 17.296875 14.566406 17.328125 14.5625 17.363281 14.558594 C 17.390625 14.554688 17.421875 14.550781 17.453125 14.546875 C 17.480469 14.542969 17.503906 14.535156 17.53125 14.53125 C 17.574219 14.523438 17.621094 14.515625 17.664062 14.503906 C 17.695312 14.496094 17.730469 14.488281 17.761719 14.480469 C 17.785156 14.476562 17.804688 14.46875 17.828125 14.464844 C 18.1875 14.371094 18.53125 14.226562 18.839844 14.039062 C 18.871094 14.023438 18.902344 14.003906 18.925781 13.984375 C 20.050781 13.273438 20.800781 12.019531 20.800781 10.601562 C 20.800781 8.398438 19 6.601562 16.800781 6.601562 C 14.601562 6.601562 12.800781 8.398438 12.800781 10.601562 C 12.800781 12.046875 13.582031 13.324219 14.742188 14.023438 C 14.746094 14.03125 14.753906 14.035156 14.761719 14.039062 C 15.070312 14.226562 15.414062 14.371094 15.773438 14.464844 C 15.792969 14.46875 15.816406 14.476562 15.839844 14.480469 C 15.871094 14.488281 15.902344 14.496094 15.933594 14.503906 C 15.980469 14.515625 16.023438 14.523438 16.070312 14.53125 C 16.09375 14.535156 16.121094 14.542969 16.148438 14.546875 C 16.179688 14.550781 16.207031 14.554688 16.238281 14.558594 C 16.269531 14.5625 16.304688 14.566406 16.335938 14.570312 C 16.355469 14.574219 16.378906 14.578125 16.398438 14.578125 L 16.398438 17 L 3 17 C 2.679688 17 2.398438 16.71875 2.398438 16.398438 L 2.398438 4.800781 C 2.398438 4.480469 2.679688 4.199219 3 4.199219 L 21 4.199219 C 21.320312 4.199219 21.601562 4.480469 21.601562 4.800781 L 21.601562 16.398438 C 21.601562 16.71875 21.320312 17 21 17 L 17.199219 17 Z M 17.199219 14.578125"/>
    <path d="M 7.199219 6.601562 C 5 6.601562 3.199219 8.398438 3.199219 10.601562 C 3.199219 12.800781 5 14.601562 7.199219 14.601562 C 9.398438 14.601562 11.199219 12.800781 11.199219 10.601562 C 11.199219 8.398438 9.398438 6.601562 7.199219 6.601562 Z M 7.601562 13.773438 L 7.601562 13.398438 C 7.601562 13.160156 7.441406 13 7.199219 13 C 6.960938 13 6.800781 13.160156 6.800781 13.398438 L 6.800781 13.773438 C 5.226562 13.574219 4 12.222656 4 10.601562 C 4 8.976562 5.226562 7.625 6.800781 7.425781 L 6.800781 7.800781 C 6.800781 8.039062 6.960938 8.199219 7.199219 8.199219 C 7.441406 8.199219 7.601562 8.039062 7.601562 7.800781 L 7.601562 7.425781 C 9.171875 7.625 10.398438 8.976562 10.398438 10.601562 C 10.398438 12.222656 9.171875 13.574219 7.601562 13.773438 Z M 7.601562 13.773438"/>
    <path d="M6 9.800781C5.558594 9.800781 5.199219 10.160156 5.199219 10.601562 5.199219 11.039062 5.558594 11.398438 6 11.398438 6.441406 11.398438 6.800781 11.039062 6.800781 10.601562 6.800781 10.160156 6.441406 9.800781 6 9.800781zM8.398438 9.800781C7.960938 9.800781 7.601562 10.160156 7.601562 10.601562 7.601562 11.039062 7.960938 11.398438 8.398438 11.398438 8.839844 11.398438 9.199219 11.039062 9.199219 10.601562 9.199219 10.160156 8.839844 9.800781 8.398438 9.800781zM16.398438 11L17.199219 11C17.441406 11 17.601562 10.839844 17.601562 10.601562 17.601562 10.359375 17.441406 10.199219 17.199219 10.199219L16.398438 10.199219C16.160156 10.199219 16 10.359375 16 10.601562 16 10.839844 16.160156 11 16.398438 11zM16.398438 11"/>
</svg>

<svg xmlns="http://www.w3.org/2000/svg" width="32" height="32" viewBox="0 0 24 24">
    <path d="M21.602 1.8H2.398A2.404 2.404 0 0 0 0 4.2V17a2.404 2.404 0 0 0 2.398 2.398h14c0 .403.082.762.243 1.082.48 1.239 1.96 1.84 3.32 1.32.8-.28 2.039-.241 2.559.278.082.082.16.121.28.121.122 0 .2-.039.278-.12a.385.385 0 0 0 0-.56c-.758-.757-2.36-.84-3.398-.44-.961.362-1.961-.04-2.32-.88-.122-.238-.16-.52-.16-.8h4.402A2.404 2.404 0 0 0 24 17V4.2a2.404 2.404 0 0 0-2.398-2.4zM23.199 17c0 .879-.719 1.602-1.597 1.602h-4.403V17.8H21c.762 0 1.398-.64 1.398-1.403V4.801c0-.762-.636-1.403-1.398-1.403H3c-.762 0-1.398.641-1.398 1.403v11.597c0 .762.636 1.403 1.398 1.403h13.398v.8h-14A1.605 1.605 0 0 1 .801 17V4.2c0-.88.719-1.598 1.597-1.598h19.204c.878 0 1.597.718 1.597 1.597zm-9.597-6.398c0-.938.402-1.782 1.046-2.368.2 1.57.2 3.164.008 4.735a3.188 3.188 0 0 1-1.054-2.367zm5.343 2.367a19.2 19.2 0 0 1 .004-4.735 3.188 3.188 0 0 1-.004 4.734zm-3.543-5.246a3.172 3.172 0 0 1 2.797 0 20 20 0 0 0 0 5.754 3.19 3.19 0 0 1-1 .296v-1.972c0-.242-.16-.403-.398-.403-.242 0-.403.16-.403.403v1.972a3.198 3.198 0 0 1-.996-.296 20 20 0 0 0 0-5.754zm1.797 6.855c.024 0 .043-.004.067-.008l.097-.011.09-.012c.027-.004.05-.012.078-.016.043-.008.09-.015.133-.027l.098-.024c.023-.003.043-.011.066-.015a3.805 3.805 0 0 0 1.098-.48 4.007 4.007 0 0 0 1.875-3.383c0-2.204-1.801-4-4-4-2.2 0-4 1.796-4 4 0 1.445.781 2.722 1.941 3.421.004.008.012.012.02.016.308.188.652.332 1.011.426.02.004.043.012.067.015l.094.024c.046.012.09.02.136.027.024.004.051.012.078.016l.09.012.098.011c.02.004.043.008.062.008V17H3a.618.618 0 0 1-.602-.602V4.801c0-.32.282-.602.602-.602h18c.32 0 .602.281.602.602v11.597c0 .32-.282.602-.602.602h-3.8zm0 0"/>
    <path d="M7.2 6.602c-2.2 0-4 1.796-4 4 0 2.199 1.8 4 4 4 2.198 0 4-1.801 4-4 0-2.204-1.802-4-4-4zm.402 7.171v-.375c0-.238-.16-.398-.403-.398-.238 0-.398.16-.398.398v.375A3.211 3.211 0 0 1 4 10.602a3.212 3.212 0 0 1 2.8-3.176V7.8c0 .238.16.398.4.398.241 0 .402-.16.402-.398v-.375c1.57.199 2.796 1.55 2.796 3.176a3.211 3.211 0 0 1-2.796 3.171zm0 0"/>
    <path d="M6 9.8c-.441 0-.8.36-.8.802a.801.801 0 0 0 1.6 0c0-.442-.359-.801-.8-.801zm0 0M8.398 9.8a.801.801 0 0 0-.796.802.8.8 0 0 0 .796.796c.442 0 .801-.359.801-.796 0-.442-.36-.801-.8-.801zm0 0M16.398 11h.801c.242 0 .403-.16.403-.398 0-.243-.16-.403-.403-.403h-.8c-.239 0-.399.16-.399.403 0 .238.16.398.398.398zm0 0"/>
</svg>
